X: 38373
T: Stanley's Visit
R: slip jig
M: 9/8
K: Gmajor
"G"GAB "D"cBA "G"Bcd|"C"edc "G"BAG "D"AFD|
"G"GAB "D"cBA "G"Bcd|1 "C"ege "D"fdf "G"gdB:|2 "C"ege "D"fdf "G"gfe||
"G" dBd "C"ege "G"dcB|"C"cde "G"dcB "D"ABc|
"G" dBd "C"ege "G"dcB|1 "C"cde "D"def "G"gfe:|2 "C"cde "D"def "G"gdB||

